svgs/sharp-light/arrow-up-1-9.svg

<svg xmlns="http://www.w3.org/2000/svg" viewBox="0 0 576 512"><!--! Font Awesome Pro 6.6.0 by @fontawesome - https://fontawesome.com License - https://fontawesome.com/license (Commercial License) Copyright 2024 Fonticons, Inc. --><path d="M368 32l16 0 48 0 16 0 0 16 0 144 32 0 16 0 0 32-16 0-48 0-48 0-16 0 0-32 16 0 32 0 0-128-32 0-16 0 0-32zM160 33.4l11.3 11.3 88 88L270.6 144 248 166.6l-11.3-11.3L176 94.6 176 464l0 16-32 0 0-16 0-369.4L83.3 155.3 72 166.6 49.4 144l11.3-11.3 88-88L160 33.4zM428 288a52 52 0 1 0 0 104 52 52 0 1 0 0-104zm-84 52c0-46.4 37.6-84 84-84s84 37.6 84 84c0 1.3 0 2.7-.1 4c0 0 .1 0 .1 0c0 21.1-7.1 41.6-20.2 58.1L430.1 480l-40.4 0c.5-.9 1-1.8 1.7-2.7l42.4-53.5c-1.9 .1-3.9 .2-5.8 .2c-46.4 0-84-37.6-84-84z"/></svg>

<svg xmlns="http://www.w3.org/2000/svg" viewBox="0 0 576 512"><!--! Font Awesome Pro 6.4.0 by @fontawesome - https://fontawesome.com License - https://fontawesome.com/license (Commercial License) Copyright 2023 Fonticons, Inc. --><path d="M368 32h16 48 16V48 192h32 16v32H480 432 384 368V192h16 32V64H384 368V32zM160 33.4l11.3 11.3 88 88L270.6 144 248 166.6l-11.3-11.3L176 94.6V464v16H144V464 94.6L83.3 155.3 72 166.6 49.4 144l11.3-11.3 88-88L160 33.4zM428 288a52 52 0 1 0 0 104 52 52 0 1 0 0-104zm-84 52c0-46.4 37.6-84 84-84s84 37.6 84 84c0 1.3 0 2.7-.1 4h.1c0 21.1-7.1 41.6-20.2 58.1L430.1 480H389.7c.5-.9 1-1.8 1.7-2.7l42.4-53.5c-1.9 .1-3.9 .2-5.8 .2c-46.4 0-84-37.6-84-84z"/></svg>
